X: 11023
T: DENICE'S REEL
C: Bob McQuillen 29 July 96
B: Bob's Note Book 11 #23
R: reel
Z: 2020 John Chambers <jc:trillian.mit.edu>
M: C
L: 1/8
K: G	% and Em
EF \
| G2GF EFGA | G2GF EFGB | A2AG FGAB | A2AG FDGA |
| BABc BAGA | Bded edBG | E2GE FGAF | GBAG FD  :|
K: Em
|: GA \
| BABd e2ed | BGEG FDGA | BABd e2ef | gage fdef |
| g2ge f2fd | BGEG FGAF | GABG ABcA | Beed e2  :|
%%begintext align
%% Denice Reese lives
%% in Hendricks, WV. When she's home, and then
%% during the summer she and Rodney Sutton
%% coordinate Dance Week at Augusta. Quite
%% often I get to play piano for her when she's calling
%% dances and she's a real joy to work with. Much
%% love to you, Denice -
%%endtext

%%sep 1 1 500

%%sep 1 1 500

